X:1
T:James Gibb editions
T:Dime, triste coraçón - Torre
%%score [ 1 2 3 4 ]
L:1/8
Q:1/4=91
M:2/2
K:Eb
V:1 treble nm="Soprano" snm="S"
V:2 treble nm="Alto" snm="A"
V:3 treble-8 nm="Tenor" snm="T"
V:4 bass nm="Bass" snm="B"
V:1
"^Dime, triste coraçón""^Francisco de la Torre\n(1460-1505)" F2 F2 | =E4 F4 | G6 F2 | =E4 G2 G2 | %4
w: Di- me,|tris- te|co- ra-|çón, ¿por- qué|
 A4 G4 | (F3 =E/D/) (E F2 E) | F8 |[M:2/2] F2 F2 G2 A2 | B6 A2 | G4 G4 | F2 F2 G2 A2 | B6 A2 | %12
w: ca- llas|tu * * pa\- * *|sión?|Ca- ti- vo, no|sé qué|di- ga;|a quien sir- vo~~es|mi'e- ne-|
 G4 G4 | F2 F2 | =E4 F4 | G6 F2 | =E2 E2 G2 G2 | A4 G4 | (F3 =E/D/) (E F2 E) | F8 |] %20
w: mi- ga,|plá- `ze-|le con|mi fa-|ti- ga, de- ses-|pe- ro|ga\- * * lar\- * *|dón.|
V:2
 C2 C2 | C6 D2 | E6 C2 | C4 E2 E2 | F4 E4 | (C2 B,2) C4 | A,8 |[M:2/2] C2 C2 C2 (CD) | E6 C2 | %9
w: Di- me,|tris- te|co- ra-|çón, ¿por- qué|ca- llas|tu * pa-|sión?|Ca- ti- vo, no *|sé qué|
 C4 C4 | C2 C2 C2 CD | E6 C2 | C4 C4 | C2 C2 | C6 D2 | E6 C2 | C2 C2 E2 E2 | F4 E4 | (C2 B,2) C4 | %19
w: di- ga;|a quien sir- vo es|mi'e- ne-|mi- ga,|plá- ze-|le con|mi fa-|ti- ga, de- ses-|pe- ro|ga\- * lar-|
 A,8 |] %20
w: dón.|
V:3
 F2 F2 | G4 A4 | B6 A2 | G4 c2 c2 | c4 B4 | (A2 F2) G4 | F8 |[M:2/2][K:treble-8] F2 F2 =E2 F2 | %8
w: Di- me,|tris- te|co- ra-|çón, ¿por- qué|ca- llas|tu * pa-|sión?|Ca- ti- vo, no|
 G6 F2 | =E4 E4 | F2 F2 =E2 F2 | G6 F2 | E4 E4 | F2 F2 | G4 A4 | B6 A2 | G2 G2 c2 c2 | c4 B4 | %18
w: sé qué|di- ga;|a quien sir- vo~~es|mi'e- ne-|mi- ga,|plá- ze-|le con|mi fa-|ti- ga, de- ses-|pe- ro|
 (A2 F2) G4 | F8 |] %20
w: ga\- * lar-|dón.|
V:4
 F,2 F,2 | C,4 F,4 | E,6 F,2 | C,4 C,2 C,2 | (F,2 A,2) E,4 | (F,2 _D,2) C,4 | C8 | %7
w: Di- me,|tris- te|co- ra-|çón, ¿por- qué|ca\- * llas|tu * pa-|sión?|
[M:2/2] F,2 F,2 C,2 F,2 | E,6 F,2 | C,4 C,4 | F,2 F,2 C,2 F,2 | E,6 F,2 | C,4 C,4 | F,2 F,2 | %14
w: Ca- ti- vo, no|sé qué|di- ga;|a quien sir- vo~~es|mi'e- ne-|mi- ga,|plá- ze-|
 C,4 F,4 | E,6 F,2 | C,2 C,2 C,2 C,2 | (F,2 A,2) E,4 | (F,2 _D,2) C,4 | C8 |] %20
w: le con|mi fa-|ti- ga, de- ses-|pe\- * ro|ga\- * lar-|dón.|

